poi/svg/2409.svg

<?xml version="1.0" encoding="UTF-8" standalone="no"?>
<svg
   xmlns:dc="http://purl.org/dc/elements/1.1/"
   xmlns:cc="http://creativecommons.org/ns#"
   xmlns:rdf="http://www.w3.org/1999/02/22-rdf-syntax-ns#"
   xmlns:svg="http://www.w3.org/2000/svg"
   xmlns="http://www.w3.org/2000/svg"
   xmlns:sodipodi="http://sodipodi.sourceforge.net/DTD/sodipodi-0.dtd"
   xmlns:inkscape="http://www.inkscape.org/namespaces/inkscape"
   inkscape:version="1.0 (4035a4fb49, 2020-05-01)"
   sodipodi:docname="2409.svg"
   id="svg20"
   version="1.2"
   viewBox="0 0 42.519639 42.519639"
   height="14.999999mm"
   width="14.999999mm">
  <metadata
     id="metadata24">
    <rdf:RDF>
      <cc:Work
         rdf:about="">
        <dc:format>image/svg+xml</dc:format>
        <dc:type
           rdf:resource="http://purl.org/dc/dcmitype/StillImage" />
        <dc:title>Qt SVG Document</dc:title>
      </cc:Work>
    </rdf:RDF>
  </metadata>
  <sodipodi:namedview
     inkscape:current-layer="svg20"
     inkscape:window-maximized="0"
     inkscape:window-y="0"
     inkscape:window-x="0"
     inkscape:cy="28.346482"
     inkscape:cx="28.346482"
     inkscape:zoom="5.8410537"
     showgrid="false"
     id="namedview22"
     inkscape:window-height="480"
     inkscape:window-width="1034"
     inkscape:pageshadow="2"
     inkscape:pageopacity="0"
     guidetolerance="10"
     gridtolerance="10"
     objecttolerance="10"
     borderopacity="1"
     bordercolor="#666666"
     pagecolor="#ffffff" />
  <title
     id="title2">Qt SVG Document</title>
  <desc
     id="desc4">Generated with Qt</desc>
  <defs
     id="defs6" />
  <g
     transform="translate(5.25984,5.25984)"
     id="g18"
     stroke-linejoin="bevel"
     stroke-linecap="square"
     fill-rule="evenodd"
     stroke-width="1"
     stroke="#000000"
     fill="none">
    <g
       id="g10"
       font-style="normal"
       font-weight="400"
       font-size="7.8px"
       font-family="'MS Shell Dlg 2'"
       stroke="none"
       fill-opacity="1"
       fill="#ec1d24">
      <path
         id="path8"
         d="M 37.2598,16 C 37.2598,27.7415 27.7415,37.2598 16,37.2598 4.25851,37.2598 -5.25984,27.7415 -5.25984,16 -5.25984,4.25851 4.25851,-5.25984 16,-5.25984 27.7415,-5.25984 37.2598,4.25851 37.2598,16"
         fill-rule="evenodd"
         vector-effect="non-scaling-stroke" />
    </g>
    <g
       id="g14"
       font-style="normal"
       font-weight="400"
       font-size="7.8px"
       font-family="'MS Shell Dlg 2'"
       transform="translate(16,11.4646)"
       stroke="none"
       fill-opacity="0.94902"
       fill="#ffffff">
      <path
         id="path12"
         d="m -13.3413,-5.88428 c 0.028,0 0.112,-0.0035 0.2519,-0.0105 0.14,-0.00699 0.392,-0.01049 0.7559,-0.01049 0.3639,0 0.8573,-0.0035 1.4802,-0.0105 0.6229,-0.007 1.42776,-0.0105 2.41458,-0.0105 0.98682,0 2.17659,0 3.56934,0 1.39274,0 3.04093,0 4.9445753,0 1.9596347,0 3.6533247,0 5.0810547,0 1.42773,0 2.63501,0 3.62183,0 0.98681,0 1.78462,0 2.39352,0 0.6089,0 1.0848,0.0035 1.4278,0.0105 0.3429,0.007 0.5774,0.014 0.7033,0.02099 0.126,0.007 0.203,0.0105 0.231,0.0105 0.028,0.014 0.0735,0.028 0.1365,0.04199 0.063,0.014 0.1084,0.035 0.1364,0.06299 0.112,0.042 0.2205,0.12248 0.3255,0.24146 0.105,0.11898 0.1784,0.22046 0.2204,0.30444 0.07,0.13998 0.1155,0.26945 0.1365,0.38843 0.021,0.11898 0.0315,0.34643 0.0315,0.68237 v 0.65088 H 13.6597 12.7778 V 5.22266 13.957 h 0.8819 0.8608 v 0.6509 c 0,0.3359 -0.0105,0.5634 -0.0315,0.6824 -0.021,0.119 -0.0665,0.2484 -0.1365,0.3884 -0.042,0.084 -0.1154,0.1855 -0.2204,0.3045 -0.105,0.1189 -0.2135,0.1994 -0.3255,0.2414 -0.042,0.028 -0.0909,0.049 -0.1469,0.063 -0.056,0.014 -0.098,0.028 -0.126,0.042 -0.028,0 -0.105,0.0035 -0.231,0.0105 -0.1259,0.007 -0.3604,0.014 -0.7033,0.021 -0.343,0.007 -0.8189,0.0105 -1.4278,0.0105 -0.6089,0 -1.40671,0 -2.39352,0 -0.98682,0 -2.1906,0 -3.61133,0 -1.42074,0 -3.11092,0 -5.0705586,0 -1.9596314,0 -3.6498214,0 -5.0705614,0 -1.42073,0 -2.62451,0 -3.61132,0 -0.98682,0 -1.78471,0 -2.39351,0 -0.6089,0 -1.0848,-0.0035 -1.4278,-0.0105 -0.3429,-0.007 -0.5774,-0.0105 -0.7034,-0.0105 -0.1259,0 -0.2029,-0.007 -0.2309,-0.021 -0.084,-0.014 -0.175,-0.049 -0.273,-0.105 -0.1119,-0.042 -0.2204,-0.1225 -0.3254,-0.2414 -0.105,-0.119 -0.1785,-0.2205 -0.2205,-0.3045 -0.0699,-0.14 -0.1154,-0.2694 -0.1364,-0.3884 -0.021,-0.119 -0.0315,-0.3465 -0.0315,-0.6824 V 13.957 h 0.8608 0.8819 V 5.22266 -3.51172 h -0.8819 -0.8608 V -4.1626 c 0,-0.33594 0.0105,-0.56339 0.0315,-0.68237 0.021,-0.11898 0.0665,-0.24845 0.1364,-0.38843 0.042,-0.09798 0.1155,-0.20296 0.2205,-0.31494 0.105,-0.11198 0.2135,-0.18896 0.3254,-0.23096 0.098,-0.04199 0.189,-0.07698 0.273,-0.10498 m 6.61376,2.37256 h -1.93164 -1.97362 c 0,0 -0.0035,0.23096 -0.0105,0.69287 -0.007,0.46192 -0.0105,1.0918 -0.0105,1.889651 0,0.797851 0,1.725179 0,2.781979 0,1.05681 0,2.1871 0,3.39087 l 0.021,8.71335 h 0.9868 1.00782 v -1.4277 c 0,-0.5879 0,-0.9868 0,-1.1968 0,-0.2099 0.01399,-0.3499 0.04199,-0.4199 0.16797,-0.8678 0.48291,-1.6167 0.94482,-2.24658 0.11198,-0.15398 0.23796,-0.31145 0.37793,-0.47242 0.13998,-0.16097 0.26595,-0.28344 0.37793,-0.36743 L -6.72754,7.6792 V 2.07324 -3.51172 m 5.857911,0 H -2.82227 -4.7959 v 5.12305 c 0,1.0778 0,1.94564 0,2.60351 0,0.65788 0.0035,1.17229 0.0105,1.54322 0.007,0.37093 0.014,0.61938 0.021,0.74536 0.00699,0.12597 0.01049,0.18896 0.01049,0.18896 L -4.54395,6.65039 C -4.43197,6.6224 -4.33049,6.6014 -4.2395,6.5874 c 0.09098,-0.014 0.20296,-0.02449 0.33594,-0.03149 0.13297,-0.007 0.31494,-0.014 0.54589,-0.021 0.23096,-0.007 0.5424,-0.0105 0.93433,-0.0105 L -0.869629,6.50342 V 6.29346 6.10449 L -0.974609,6.0835 C -1.10059,6.0415 -1.24406,5.99251 -1.40503,5.93652 -1.566,5.88053 -1.70947,5.81755 -1.83545,5.74756 -2.42334,5.46761 -2.93075,5.07218 -3.35767,4.56128 -3.78459,4.05037 -4.08203,3.47998 -4.25,2.8501 -4.30599,2.62614 -4.34098,2.44417 -4.35498,2.3042 c -0.014,-0.13997 -0.021,-0.33594 -0.021,-0.58789 0,-0.26595 0.007,-0.46541 0.021,-0.59839 0.014,-0.132975 0.04899,-0.318441 0.10498,-0.556397 0.02799,-0.139974 0.08398,-0.297444 0.16797,-0.4724117 0.08398,-0.1749674 0.16097,-0.3324383 0.23096,-0.4724123 0.29394,-0.573893 0.68937,-1.053299 1.18628,-1.438229 0.4969,-0.38493 1.0603,-0.66138 1.690181,-0.82935 l 0.10498,-0.021 V -3.0918 -3.51172 m 5.857909,0 H 3.03564 1.06201 v 0.41992 0.41992 l 0.10498,0.021 c 0.39193,0.09798 0.76636,0.24845 1.12329,0.45142 0.35694,0.20296 0.67538,0.44441 0.95533,0.72436 0.36393,0.34994 0.64388,0.724368 0.83984,1.123293 0.19596,0.3989261 0.34294,0.850342 0.44092,1.354247 0.02799,0.08399 0.04199,0.17497 0.04199,0.27295 0,0.09798 0,0.24496 0,0.44092 0,0.19596 0,0.33944 0,0.43042 0,0.09098 -0.014,0.18546 -0.04199,0.28345 C 4.42839,2.92008 4.28491,3.361 4.09595,3.75293 3.90698,4.14486 3.63753,4.51579 3.2876,4.86572 2.69971,5.45361 1.99284,5.85254 1.16699,6.0625 L 1.06201,6.10449 v 0.18897 0.20996 l 1.55371,0.02099 c 0.39193,0 0.70337,0.0035 0.93433,0.0105 0.23096,0.007 0.41292,0.014 0.5459,0.021 0.13297,0.007 0.24495,0.01749 0.33593,0.03149 0.09099,0.014 0.19247,0.035 0.30445,0.06299 l 0.20996,0.04199 c 0,0 0.0035,-0.06299 0.0105,-0.18896 0.007,-0.12598 0.01399,-0.37443 0.02099,-0.74536 0.007,-0.37093 0.0105,-0.88884 0.0105,-1.55371 0,-0.66488 0,-1.53622 0,-2.61402 v -5.10205 m 5.83692,0 H 8.87256 6.91992 V 2.07324 7.6792 l 0.18897,0.14697 c 0.18196,0.15397 0.36743,0.35344 0.55639,0.59839 0.18897,0.24495 0.36044,0.48641 0.51441,0.72437 0.13997,0.26595 0.25895,0.5319 0.35693,0.79785 0.09798,0.26592 0.17497,0.57392 0.23096,0.92382 0.014,0.056 0.02449,0.112 0.03149,0.168 0.007,0.056 0.014,0.1399 0.021,0.2519 0.007,0.112 0.0105,0.266 0.0105,0.4619 0,0.196 0,0.462 0,0.7979 V 13.957 H 9.83838 10.8252 V 5.22266 -3.51172"
         fill-rule="evenodd"
         vector-effect="none" />
    </g>
    <g
       id="g16"
       font-style="normal"
       font-weight="400"
       font-size="7.8px"
       font-family="'MS Shell Dlg 2'"
       stroke="none"
       fill-opacity="1"
       fill="#ec1d24" />
  </g>
</svg>

<?xml version="1.0" encoding="UTF-8" standalone="no"?>
<svg width="11.2889mm" height="11.2889mm"
 viewBox="0 0 32 32"
 xmlns="http://www.w3.org/2000/svg" xmlns:xlink="http://www.w3.org/1999/xlink"  version="1.2" baseProfile="tiny">
<title>Qt SVG Document</title>
<desc>Generated with Qt</desc>
<defs>
</defs>
<g fill="none" stroke="black" stroke-width="1" fill-rule="evenodd" stroke-linecap="square" stroke-linejoin="bevel" >

<g fill="#ec1d24" fill-opacity="1" stroke="none" transform="matrix(1,0,0,1,0,0)"
font-family="MS Shell Dlg 2" font-size="7.8" font-weight="400" font-style="normal" 
>
<path vector-effect="non-scaling-stroke" fill-rule="evenodd" d="M37.2598,16 C37.2598,27.7415 27.7415,37.2598 16,37.2598 C4.25851,37.2598 -5.25984,27.7415 -5.25984,16 C-5.25984,4.25851 4.25851,-5.25984 16,-5.25984 C27.7415,-5.25984 37.2598,4.25851 37.2598,16 "/>
</g>

<g fill="#ffffff" fill-opacity="0.94902" stroke="none" transform="matrix(1,0,0,1,16,11.4646)"
font-family="MS Shell Dlg 2" font-size="7.8" font-weight="400" font-style="normal" 
>
<path vector-effect="none" fill-rule="evenodd" d="M-13.3413,-5.88428 C-13.3133,-5.88428 -13.2293,-5.88778 -13.0894,-5.89478 C-12.9494,-5.90177 -12.6974,-5.90527 -12.3335,-5.90527 C-11.9696,-5.90527 -11.4762,-5.90877 -10.8533,-5.91577 C-10.2304,-5.92277 -9.42554,-5.92627 -8.43872,-5.92627 C-7.4519,-5.92627 -6.26213,-5.92627 -4.86938,-5.92627 C-3.47664,-5.92627 -1.82845,-5.92627 0.0751953,-5.92627 C2.03483,-5.92627 3.72852,-5.92627 5.15625,-5.92627 C6.58398,-5.92627 7.79126,-5.92627 8.77808,-5.92627 C9.76489,-5.92627 10.5627,-5.92627 11.1716,-5.92627 C11.7805,-5.92627 12.2564,-5.92277 12.5994,-5.91577 C12.9423,-5.90877 13.1768,-5.90177 13.3027,-5.89478 C13.4287,-5.88778 13.5057,-5.88428 13.5337,-5.88428 C13.5617,-5.87028 13.6072,-5.85628 13.6702,-5.84229 C13.7332,-5.82829 13.7786,-5.80729 13.8066,-5.7793 C13.9186,-5.7373 14.0271,-5.65682 14.1321,-5.53784 C14.2371,-5.41886 14.3105,-5.31738 14.3525,-5.2334 C14.4225,-5.09342 14.468,-4.96395 14.489,-4.84497 C14.51,-4.72599 14.5205,-4.49854 14.5205,-4.1626 L14.5205,-3.51172 L13.6597,-3.51172 L12.7778,-3.51172 L12.7778,5.22266 L12.7778,13.957 L13.6597,13.957 L14.5205,13.957 L14.5205,14.6079 C14.5205,14.9438 14.51,15.1713 14.489,15.2903 C14.468,15.4093 14.4225,15.5387 14.3525,15.6787 C14.3105,15.7627 14.2371,15.8642 14.1321,15.9832 C14.0271,16.1021 13.9186,16.1826 13.8066,16.2246 C13.7646,16.2526 13.7157,16.2736 13.6597,16.2876 C13.6037,16.3016 13.5617,16.3156 13.5337,16.3296 C13.5057,16.3296 13.4287,16.3331 13.3027,16.3401 C13.1768,16.3471 12.9423,16.3541 12.5994,16.3611 C12.2564,16.3681 11.7805,16.3716 11.1716,16.3716 C10.5627,16.3716 9.76489,16.3716 8.77808,16.3716 C7.79126,16.3716 6.58748,16.3716 5.16675,16.3716 C3.74601,16.3716 2.05583,16.3716 0.0961914,16.3716 C-1.86344,16.3716 -3.55363,16.3716 -4.97437,16.3716 C-6.3951,16.3716 -7.59888,16.3716 -8.58569,16.3716 C-9.57251,16.3716 -10.3704,16.3716 -10.9792,16.3716 C-11.5881,16.3716 -12.064,16.3681 -12.407,16.3611 C-12.7499,16.3541 -12.9844,16.3506 -13.1104,16.3506 C-13.2363,16.3506 -13.3133,16.3436 -13.3413,16.3296 C-13.4253,16.3156 -13.5163,16.2806 -13.6143,16.2246 C-13.7262,16.1826 -13.8347,16.1021 -13.9397,15.9832 C-14.0447,15.8642 -14.1182,15.7627 -14.1602,15.6787 C-14.2301,15.5387 -14.2756,15.4093 -14.2966,15.2903 C-14.3176,15.1713 -14.3281,14.9438 -14.3281,14.6079 L-14.3281,13.957 L-13.4673,13.957 L-12.5854,13.957 L-12.5854,5.22266 L-12.5854,-3.51172 L-13.4673,-3.51172 L-14.3281,-3.51172 L-14.3281,-4.1626 C-14.3281,-4.49854 -14.3176,-4.72599 -14.2966,-4.84497 C-14.2756,-4.96395 -14.2301,-5.09342 -14.1602,-5.2334 C-14.1182,-5.33138 -14.0447,-5.43636 -13.9397,-5.54834 C-13.8347,-5.66032 -13.7262,-5.7373 -13.6143,-5.7793 C-13.5163,-5.82129 -13.4253,-5.85628 -13.3413,-5.88428 M-6.72754,-3.51172 L-8.65918,-3.51172 L-10.6328,-3.51172 C-10.6328,-3.51172 -10.6363,-3.28076 -10.6433,-2.81885 C-10.6503,-2.35693 -10.6538,-1.72705 -10.6538,-0.929199 C-10.6538,-0.131348 -10.6538,0.79598 -10.6538,1.85278 C-10.6538,2.90959 -10.6538,4.03988 -10.6538,5.24365 L-10.6328,13.957 L-9.646,13.957 L-8.63818,13.957 L-8.63818,12.5293 C-8.63818,11.9414 -8.63818,11.5425 -8.63818,11.3325 C-8.63818,11.1226 -8.62419,10.9826 -8.59619,10.9126 C-8.42822,10.0448 -8.11328,9.2959 -7.65137,8.66602 C-7.53939,8.51204 -7.41341,8.35457 -7.27344,8.1936 C-7.13346,8.03263 -7.00749,7.91016 -6.89551,7.82617 L-6.72754,7.6792 L-6.72754,2.07324 L-6.72754,-3.51172 M-0.869629,-3.51172 L-2.82227,-3.51172 L-4.7959,-3.51172 L-4.7959,1.61133 C-4.7959,2.68913 -4.7959,3.55697 -4.7959,4.21484 C-4.7959,4.87272 -4.7924,5.38713 -4.7854,5.75806 C-4.7784,6.12899 -4.7714,6.37744 -4.7644,6.50342 C-4.75741,6.62939 -4.75391,6.69238 -4.75391,6.69238 L-4.54395,6.65039 C-4.43197,6.6224 -4.33049,6.6014 -4.2395,6.5874 C-4.14852,6.5734 -4.03654,6.56291 -3.90356,6.55591 C-3.77059,6.54891 -3.58862,6.54191 -3.35767,6.53491 C-3.12671,6.52791 -2.81527,6.52441 -2.42334,6.52441 L-0.869629,6.50342 L-0.869629,6.29346 L-0.869629,6.10449 L-0.974609,6.0835 C-1.10059,6.0415 -1.24406,5.99251 -1.40503,5.93652 C-1.566,5.88053 -1.70947,5.81755 -1.83545,5.74756 C-2.42334,5.46761 -2.93075,5.07218 -3.35767,4.56128 C-3.78459,4.05037 -4.08203,3.47998 -4.25,2.8501 C-4.30599,2.62614 -4.34098,2.44417 -4.35498,2.3042 C-4.36898,2.16423 -4.37598,1.96826 -4.37598,1.71631 C-4.37598,1.45036 -4.36898,1.2509 -4.35498,1.11792 C-4.34098,0.984945 -4.30599,0.799479 -4.25,0.561523 C-4.22201,0.421549 -4.16602,0.264079 -4.08203,0.0891113 C-3.99805,-0.0858561 -3.92106,-0.243327 -3.85107,-0.383301 C-3.55713,-0.957194 -3.1617,-1.4366 -2.66479,-1.82153 C-2.16789,-2.20646 -1.60449,-2.48291 -0.974609,-2.65088 L-0.869629,-2.67188 L-0.869629,-3.0918 L-0.869629,-3.51172 M4.98828,-3.51172 L3.03564,-3.51172 L1.06201,-3.51172 L1.06201,-3.0918 L1.06201,-2.67188 L1.16699,-2.65088 C1.55892,-2.5529 1.93335,-2.40243 2.29028,-2.19946 C2.64722,-1.9965 2.96566,-1.75505 3.24561,-1.4751 C3.60954,-1.12516 3.88949,-0.750732 4.08545,-0.351807 C4.28141,0.0471191 4.42839,0.498535 4.52637,1.00244 C4.55436,1.08643 4.56836,1.17741 4.56836,1.27539 C4.56836,1.37337 4.56836,1.52035 4.56836,1.71631 C4.56836,1.91227 4.56836,2.05575 4.56836,2.14673 C4.56836,2.23771 4.55436,2.33219 4.52637,2.43018 C4.42839,2.92008 4.28491,3.361 4.09595,3.75293 C3.90698,4.14486 3.63753,4.51579 3.2876,4.86572 C2.69971,5.45361 1.99284,5.85254 1.16699,6.0625 L1.06201,6.10449 L1.06201,6.29346 L1.06201,6.50342 L2.61572,6.52441 C3.00765,6.52441 3.31909,6.52791 3.55005,6.53491 C3.78101,6.54191 3.96297,6.54891 4.09595,6.55591 C4.22892,6.56291 4.3409,6.5734 4.43188,6.5874 C4.52287,6.6014 4.62435,6.6224 4.73633,6.65039 L4.94629,6.69238 C4.94629,6.69238 4.94979,6.62939 4.95679,6.50342 C4.96379,6.37744 4.97078,6.12899 4.97778,5.75806 C4.98478,5.38713 4.98828,4.86922 4.98828,4.20435 C4.98828,3.53947 4.98828,2.66813 4.98828,1.59033 L4.98828,-3.51172 M10.8252,-3.51172 L8.87256,-3.51172 L6.91992,-3.51172 L6.91992,2.07324 L6.91992,7.6792 L7.10889,7.82617 C7.29085,7.98014 7.47632,8.17961 7.66528,8.42456 C7.85425,8.66951 8.02572,8.91097 8.17969,9.14893 C8.31966,9.41488 8.43864,9.68083 8.53662,9.94678 C8.6346,10.2127 8.71159,10.5207 8.76758,10.8706 C8.78158,10.9266 8.79207,10.9826 8.79907,11.0386 C8.80607,11.0946 8.81307,11.1785 8.82007,11.2905 C8.82707,11.4025 8.83057,11.5565 8.83057,11.7524 C8.83057,11.9484 8.83057,12.2144 8.83057,12.5503 L8.83057,13.957 L9.83838,13.957 L10.8252,13.957 L10.8252,5.22266 L10.8252,-3.51172"/>
</g>

<g fill="#ec1d24" fill-opacity="1" stroke="none" transform="matrix(1,0,0,1,0,0)"
font-family="MS Shell Dlg 2" font-size="7.8" font-weight="400" font-style="normal" 
>
</g>
</g>
</svg>
